X:2788
T:Goder afton i denna sal
C:anon.
O:Sweden
Z:Transcribed by Frank Nordberg - http://www.musicaviva.com
F:http://abc.musicaviva.com/tunes/sweden/goder-afton-i-denna.abc
V:1 up
V:2 merge down
V:3 bass up
V:4 bass merge down
M:C|
L:1/16
Q:1/4=112
K:F
z2AA|c2 AA G2 A2|F4 z2 AA|c2 AA G2 A2|
w:Go-der af-ton i den-na sal! Go-der af-ton i den-na
V:2
z2AA|c2 AA G2 A2|F4 z2 FF|G2 FF F2 E2|
V:3
z4|z8|z4 z2 CC|C2 DD D2 C2|
V:4
z4|z8|z4 z2 F,F,|E,2 D,D, B,,2 C,2|
%
V:1
F4 z2 cc|c2 c2 c2 cc|c2 c2 c2 FA|
w:sal! E-der \"on-ska vi, e-der \"on-ska vi en_
V:2
F4 z2 AA|[B2G2] [A2F2] [G2E2] AA|[A2F2] [G2C2] [F2C2] FA|
V:3
A,4 z4|z8|z8|
V:4
F,4 z4|z8|z8|
%
V:1
c2 dc B2 cB|A4 z2 FA|c2 dc d2 e2|Hf4|]
w:an-ge-n\"am af-ton--stund, en_ an-ge-n\"am af-ton-stund!
V:2
c2 dc B2 cB|A4 z2 FA|c2 dc B2 cB|HA4|]
V:3
z8|z4 z2 F,A,|C2 DC D2 C2|HC4|]
V:4
z8|z4 z2 F,A,|C2 DC B,2 A,G,|HF,4|]
W:
W:Goder afton i denna sal! :|
W:Eder \"onska vi :|
W:en angen\"am aftonstund!:|
W:
W:Alla flickor i denna sal, :|
W:eder \"onska vi :|
W:en angen\"am aftonstund!:|
W:
W:Alla pojkar i denna sal, :|
W:eder \"onska vi :|
W:en angen\"am aftonstund!:|
W:
W:
W:  From Musica Viva - http://www.musicaviva.com
W:  the Internet center for free sheet music downloads.

